images/icon_time.svg

<svg width="10" height="10" viewBox="0 0 10 10" fill="none" xmlns="http://www.w3.org/2000/svg">
<path fill-rule="evenodd" clip-rule="evenodd" d="M4.99575 0.833328C2.69575 0.833328 0.833252 2.69999 0.833252 4.99999C0.833252 7.29999 2.69575 9.16666 4.99575 9.16666C7.29992 9.16666 9.16658 7.29999 9.16658 4.99999C9.16658 2.69999 7.29992 0.833328 4.99575 0.833328ZM4.99992 8.33333C3.15825 8.33333 1.66659 6.84166 1.66659 5C1.66659 3.15833 3.15825 1.66666 4.99992 1.66666C6.84159 1.66666 8.33325 3.15833 8.33325 5C8.33325 6.84166 6.84159 8.33333 4.99992 8.33333ZM4.58325 2.91666H5.20825V5.10416L7.08325 6.21666L6.77075 6.72916L4.58325 5.41666V2.91666Z" fill="#808080"/>
</svg>

<svg width="10" height="10" fill="none" xmlns="http://www.w3.org/2000/svg"><path fill-rule="evenodd" clip-rule="evenodd" d="M4.996.833A4.165 4.165 0 00.833 5c0 2.3 1.863 4.167 4.163 4.167A4.17 4.17 0 009.166 5 4.17 4.17 0 004.997.833zM5 8.333a3.332 3.332 0 110-6.666 3.332 3.332 0 110 6.666zm-.417-5.416h.625v2.187l1.875 1.113-.312.512-2.188-1.312v-2.5z" fill="gray"/></svg>
